X: 305560
T: BONNY JIM OF ABERDEEN
C:
%R: reel, march
B: Elias Howe "The Musician's Companion" Part 3 1844 p.61 #2
S: http://imslp.org/wiki/The_Musician's_Companion_(Howe,_Elias)
S: https://archive.org/stream/firstthirdpartof03howe/#page/66/mode/1up
Z: 2015 John Chambers <jc:trillian.mit.edu>
M: 2/4
L: 1/8
K: G
% - - - - - - - - - - - - - - - - - - - - - - - - -
d |\
BcBA | BGGG | ABAB | c>edc |\
B>cBA | BGGD | Eedc | BG G2 |\
A>BAG | FAd2 | A>BAG | FA d>A |\
d>efA |
B^cdB | ABAG | FDDd |\
dedB | =cAAB | GEEA | FDDd |\
BcBA | BGGB | dedB | g3 d |\
efeg | dBBG | BEEF | G3 |]
% - - - - - - - - - - - - - - - - - - - - - - - - -


